X:158 
T:La Cosa Mulligan* (reel) 
B:CRE2.163 (gan ainm)
F:file ID: cre.2/158la_c_m
C:Tommy Peoples
N:Maybe "La Casa" (the house) instead of "La Cosa" (the thing)?
L:1/8
M:C
R:reel
Q:180
K:D
D2FD EDFE|D2FD EA,A,2|E2E2 GBed|(3cde Ac dBAF|
D2FD EDFE|D2FD EA,A,2|CEAF GBed|1 cAGE D4:|2 cAGE D2D||
|:g|fddc defd|(3efe ^de fe=de|A2 (3cBA A2cB|A2 (3cBA Bcde|
fddc defd|(3efe ^de fe=de|ceAc (3efg ec|d2ce d3:|

%%%

